X: 1975
T: Yağmur Verdim Çöllere
C: Ömer Dilek
O: Turkey
F: http://compmusic.upf.edu/node/140
N: nihavent--sarki--curcuna--yagmur_verdim--omer_dilek
N: makam= nihavent
N: form= sarki
N: usul= curcuna = 10/8
M: 10/8
L: 1/16
K: C _B _e  
Q: 1/4=192
%%MIDI tuningsystem comma53
.G6.B4.A4.d6  | B2A2 G4 ^F2G8z2  | .d6.f4.e4.g6  | \
w:  ARANAĞME  |   |   | 
a2g2 f4 e2d8z2  | d4 b6a4g4f2  | 
w:   |   | 
g2f2 e4 d2e8z2  | d2B2 G6A2 B2c6  | _7/8d2c2 B4 A2G8z2  | \
w:   |   |   | 
d4 b6a4g4f2  | 
w:   | 
g2f2 e4 d2e8z2  | d2B2 G6A2 B2c6  | _7/8d2c2 B4 A2G8z2  | \
w:   |   |   | 
G6B4A4c6  | 
w:  Yağ mur  ver dim   | 
d2c2 B4 A2G8z2  | c6e4d4f6  | g2f2 e4 d2d8z2  | \
w:  çöl *  *  le re    |  Mız rap  vur dum   |  tel *  *  le re    | 
d6g4f4e6  | e2d2 c4 B2A8z2  | 
w:  Şar kı  ol dum   |  dil *  *  le re    | 
d6G4A2 B2c6  | _7/8d2c2 B4 A2G8z2  | \
w:  Sen siz li *  ğim   |  bit *  *  me di    | 
d6g4f4e6  | e2d2 c4 B2A8z2  | 
w:  Şar kı  ol dum   |  dil *  *  le re    | 
d6G4A2 B2c6  | _7/8d2c2 B4 A2G8z2  | \
w:  Sen siz li *  ğim   |  bit *  *  me di    | 
b6a4g4f6  | d2f2 e4 d2e8z2  | 
w:  Din di  ha zan   |  yağ *  *  mu ru    | 
a6g4^f4e4d2  | ^c6e2 d2d8z2  | z4 d2g4f4e6  | \
w:  Ses  ver di  bin  |  bir  kum *  ru    |  Yol_ ol dum   | 
z4 e2d4c2 B2A4z2  | 
w:  sa na  doğ *  ru    | 
d6G4A2 B2c6  | _7/8d2c2 B4 A2G8z2  | \
w:  Sen siz li *  ğim   |  bit *  *  me di    | 
z4 d2g4f4e6  | z4 e2d4c2 B2A4z2  | 
w:  Yol_ ol dum   |  sa na  doğ *  ru    | 
d6G4A2 B2c6  | _7/8d2c2 B4 A2G8z2  | \
w:  Sen siz li *  ğim   |  bit *  *  me di    | 
.G6.B4.A4.d6  | B2A2 G4 ^F2G8z2  | 
w:  ARANAĞME  |   | 
.d6.f4.e4.g6  | a2g2 f4 e2d8z2  | d4 b6a4g4f2  | \
w:   |   |   | 
g2f2 e4 d2e8z2  | 
w:   | 
d2B2 G6A2 B2c6  | _7/8d2c2 B4 A2G8z2  | \
w:   |   | 
d4 b6a4g4f2  | g2f2 e4 d2e8z2  | 
w:   |   | 
d2B2 G6A2 B2c6  | _7/8d2c2 B4 A2G8z2  | \
w:   |   | 
G6B4A4c4z2  | d2c2 B4 A2G8z2  | 
w:  Su  ta şı dı   |  pı nar *  *  lar    | 
z4 c2e4d4f6  | g2f2 e4 d2d8z2  | z4 d2g4f4e6  | \
w:  To mur cuk  ver  |  di  *  dal *  lar    |  So na  er di   | 
e2d2 c4 B2A8z2  | 
w:  ma sal *  *  lar    | 
d6G4A2 B2c6  | _7/8d2c2 B4 A2G8z2  | \
w:  Sen siz li *  ğim   |  bit *  *  me di    | 
z4 d2g4f4e6  | e2d2 c4 B2A8z2  | 
w:  So na  er di   |  ma sal *  *  lar    | 
d6G4A2 B2c6  | _7/8d2c2 B4 A2G8z2  | \
w:  Sen siz li *  ğim   |  bit *  *  me di    | 
b6a4g4f6  | d2f2 e4 d2e8z2  | 
w:  Din di  ha zan   |  yağ *  *  mu ru    | 
a6g4^f4e4d2  | ^c6e2 d2d8z2  | z4 d2g4f4e6  | \
w:  Ses  ver di  bin  |  bir  kum *  ru    |  Yol_ ol dum   | 
z4 e2d4c2 B2A4z2  | 
w:  sa na  doğ *  ru    | 
d6G4A2 B2c6  | _7/8d2c2 B4 A2G8z2  | \
w:  Sen siz li *  ğim   |  bit *  *  me di    | 
z4 d2g4f4e6  | z4 e2d4c2 B2A4z2  | 
w:  Yol_ ol dum   |  sa na  doğ *  ru    | 
d6G4A2 B2c6  | _7/8d2c2 B4 A2G8z2  | |


